X:1
T: The Comical Fellow
N:
C:
S:
A:
O:
R:
M:6/8
K:D
I:speed 168
%W: A
% voice 1 (1 lines, 20 notes)
K:D
M:6/8
L:1/16
A2 |d4 f2 e4 A2 B4 d2 c4 F2 G2 F2 G2 E2 A2 G2 F2 D2 D2 D4 A2 |
%W:
% voice 1 (1 lines, 19 notes)
d4 f2 e4 A2 B4 d2 c4 F2 G2 F2 G2 E2 A2 G2 F2 D2 D2 D4 A2 |
%W:
% voice 1 (1 lines, 19 notes)
d4 f2 e4 A2 B4 d2 c4 F2 G2 F2 G2 E2 A2 G2 F2 D2 D2 D4 A2 |
%W:
% voice 1 (1 lines, 19 notes)
d4 f2 e4 A2 B4 d2 c4 F2 G2 F2 G2 E2 A2 G2 F2 D2 D2 D4 A2 |
%W: B
% voice 1 (1 lines, 20 notes)
d4 d2 d4 d2 =c2 B2 A2 B2 G2 B2 e4 e2 e4 e2 d2 c2 B2 c2 A2 c2 |
%W:
% voice 1 (1 lines, 23 notes)
f2 e2 f2 d2 e2 f2 g2 f2 g2 e2 f2 g2 a2 g2 f2 a2 g2 f2 e2 e2 e2 e4 a2 |
%W:
% voice 1 (1 lines, 21 notes)
a2 a2 a2 a4 a2 a2 a2 a2 a4 a2 a2 f2 d2 B2 e2 c2 d2 D2 D2 D4 A2 |
%W:
% voice 1 (1 lines, 20 notes)
d4 d2 d4 d2 =c2 B2 A2 B2 G2 B2 e4 e2 e4 e2 d2 c2 B2 c2 A2 c2 |
%W:
% voice 1 (1 lines, 23 notes)
f2 e2 f2 d2 e2 f2 g2 f2 g2 e2 f2 g2 a2 g2 f2 a2 g2 f2 e2 e2 e2 e4 a2 |
%W:
% voice 1 (1 lines, 20 notes)
a2 a2 a2 a4 a2 a2 a2 a2 a4 a2 a2 f2 d2 B2 e2 c2 d2 D2 D2 D4 |
